X:260
T:George Green's College Hornpipe
M:4/4
L:1/8
R:Hornpipe
K:G
(3DEF|: G>BA>G F2 (3DEF|G>BA>G F2d2|c>BA>G F>DE>F|A>GF>E D2 (3DEF|
|G>BA>G F2 (3DEF|G>BA>G F2d2|c>BA>G F>DE>F|1 G2 B2 G2 (3DEF:|2 G2B2 G4|
|: B2d2 B2d2|e>dc>B A4|c>BA>G F>DE>F|A>GF>E D2 (3DEF|
|G>BA>G F2 (3DEF |G>BA>G F2d2|c>BA>G F>DE>F|1 G2B2 G4 :|2 G2B2G2 (3DEF||
